static/img/pages/customers/logos/apache-nifi.svg

<svg width="119" height="56" viewBox="0 0 119 56" fill="none" xmlns="http://www.w3.org/2000/svg">
<path d="M7.62812 18.5115V21.8419H7.73406C8.40924 20.5355 9.45822 19.4598 10.7472 18.752C12.0544 18.0816 13.5071 17.7446 14.9759 17.771C17.3018 17.771 19.0902 18.4053 20.3412 19.674C21.5923 20.9427 22.2176 23.0043 22.2172 25.8587V46.9509H14.9207V27.3391C14.9207 25.8589 14.6741 24.8289 14.1808 24.2492C13.8736 23.9366 13.5008 23.6962 13.0894 23.5454C12.6779 23.3945 12.2381 23.337 11.8016 23.3769C9.22859 23.3769 7.94226 24.9452 7.94262 28.0818V46.952H0.650552V18.5115H7.62812Z" fill="white"/>
<path d="M34.415 8.78446H27.1196V15.0221H34.415V8.78446Z" fill="white"/>
<path d="M34.415 18.5115H27.1196V46.9514H34.415V18.5115Z" fill="white"/>
<path d="M2.55245 9.45411L3.86674 14.42H2.82336L2.59383 13.3716H1.2696L1.04007 14.42H0L1.31429 9.45411H2.55245ZM2.42057 12.5489L1.94054 10.3165H1.92675L1.44672 12.5489H2.42057Z" fill="white"/>
<path d="M6.19675 9.45409C6.41823 9.44702 6.63836 9.491 6.84011 9.58265C7.00478 9.66095 7.14893 9.77657 7.2611 9.92033C7.36907 10.0619 7.44716 10.2239 7.49063 10.3965C7.53702 10.5749 7.56038 10.7584 7.56015 10.9427C7.56484 11.1706 7.52588 11.3972 7.44539 11.6104C7.37702 11.7887 7.26734 11.9483 7.12537 12.0761C6.98109 12.2009 6.81177 12.2935 6.62878 12.3475C6.41876 12.4097 6.20059 12.4401 5.98157 12.4375H5.44581V14.4199H4.44381V9.45409H6.19675ZM5.89052 11.7003C5.9791 11.704 6.06753 11.6899 6.15056 11.6589C6.23358 11.6278 6.30952 11.5803 6.37387 11.5193C6.44077 11.4426 6.49155 11.3531 6.52321 11.2564C6.55487 11.1596 6.56675 11.0574 6.55816 10.956C6.5723 10.7531 6.51597 10.5516 6.3987 10.3855C6.32986 10.3149 6.24599 10.2607 6.15333 10.227C6.06067 10.1932 5.9616 10.1809 5.86349 10.1907H5.44636V11.6998L5.89052 11.7003Z" fill="white"/>
<path d="M10.0377 9.45411L11.352 14.42H10.3075L10.078 13.3716H8.75373L8.52419 14.42H7.48412L8.79842 9.45411H10.0377ZM9.9058 12.5489L9.42577 10.3165H9.41198L8.93194 12.5489H9.9058Z" fill="white"/>
<path d="M13.8237 10.3413C13.7783 10.2586 13.7096 10.1911 13.6261 10.1472C13.5426 10.1032 13.4481 10.0848 13.3542 10.0942C13.2423 10.0898 13.1325 10.1256 13.0446 10.1951C12.9507 10.2833 12.8842 10.3967 12.8532 10.5218C12.7995 10.7147 12.7668 10.9128 12.7555 11.1127C12.7368 11.3562 12.7276 11.6542 12.7279 12.0066C12.7245 12.3109 12.7373 12.6151 12.766 12.9181C12.7804 13.1023 12.8201 13.2837 12.8841 13.4571C12.9203 13.5631 12.9913 13.6537 13.0855 13.7143C13.1724 13.7598 13.2694 13.7826 13.3674 13.7805C13.4519 13.781 13.5358 13.7657 13.6146 13.7352C13.6987 13.6982 13.7683 13.6346 13.8127 13.5543C13.8785 13.4353 13.9233 13.306 13.9451 13.1719C13.9817 12.9572 13.9981 12.7396 13.9942 12.5219H14.9957C14.9967 12.7782 14.9756 13.034 14.9328 13.2866C14.8973 13.5108 14.8182 13.7258 14.6999 13.9195C14.583 14.1033 14.4166 14.2503 14.2199 14.3438C13.9672 14.4551 13.6925 14.5074 13.4165 14.4967C13.1072 14.5108 12.7991 14.4486 12.5194 14.3157C12.2995 14.1981 12.121 14.0159 12.0079 13.7937C11.8817 13.539 11.8038 13.263 11.7784 12.9799C11.742 12.6333 11.7247 12.285 11.7265 11.9365C11.7249 11.5893 11.7422 11.2423 11.7784 10.897C11.8037 10.6127 11.8815 10.3357 12.0079 10.0798C12.1226 9.85623 12.3004 9.67127 12.5194 9.54792C12.7969 9.40791 13.106 9.34196 13.4165 9.35645C13.7084 9.34224 13.9992 9.40202 14.2618 9.53026C14.4537 9.63212 14.6139 9.78483 14.7248 9.97167C14.8265 10.1493 14.8916 10.3456 14.9162 10.5488C14.9409 10.7413 14.9538 10.9352 14.9548 11.1293H13.9528C13.969 10.8603 13.9249 10.5911 13.8237 10.3413Z" fill="white"/>
<path d="M16.7966 9.45411V11.3527H17.9652V9.45411H18.9667V14.42H17.9652V12.2129H16.7966V14.42H15.7952V9.45411H16.7966Z" fill="white"/>
<path d="M22.6668 10.2751H20.8929V11.4438H22.562V12.2642H20.8929V13.5995H22.7358V14.42H19.8914V9.45411H22.6662L22.6668 10.2751Z" fill="white"/>
<path d="M37.9949 23.4719V18.5028H41.695V15.2788C41.6659 14.1802 41.8453 13.0861 42.2236 12.0543C42.5344 11.2311 43.0534 10.5027 43.7299 9.93998C44.4362 9.38548 45.2582 8.997 46.135 8.80335C47.175 8.56462 48.2395 8.44943 49.3065 8.46016C50.6098 8.46016 51.9136 8.51294 53.218 8.61851V13.799C52.9735 13.7579 52.7259 13.7394 52.478 13.7438H51.7906C51.0294 13.6734 50.2665 13.8595 49.6232 14.2724C49.394 14.4974 49.2181 14.7707 49.1083 15.0725C48.9985 15.3743 48.9576 15.6969 48.9887 16.0165V18.4994H53.218V23.4692H48.9887V46.9422H41.6944V23.4719H37.9949Z" fill="white"/>
<path d="M64.8503 8.77644H57.5555V15.0141H64.8503V8.77644Z" fill="white"/>
<path d="M64.8503 18.5029H57.5555V46.9428H64.8503V18.5029Z" fill="white"/>
<path d="M98.1259 53.8154C95.6378 53.8154 93.174 53.3253 90.8753 52.3731C88.5766 51.421 86.488 50.0253 84.7286 48.2659C82.9693 46.5065 81.5738 44.4178 80.6217 42.1191C79.6696 39.8204 79.1796 37.3566 79.1797 34.8685C79.1797 25.8646 86.2371 17.2268 91.0648 10.9263C93.6741 7.53928 95.9717 3.92326 97.9297 0.122385C97.9478 0.0856476 97.9759 0.0547167 98.0107 0.0330892C98.0455 0.0114616 98.0856 0 98.1266 0C98.1676 0 98.2077 0.0114616 98.2425 0.0330892C98.2773 0.0547167 98.3054 0.0856476 98.3235 0.122385C100.282 3.92359 102.579 7.53987 105.189 10.927C110.015 17.2275 117.075 25.8602 117.075 34.8692H105.513C105.395 34.8692 105.281 34.9161 105.198 34.9996C105.115 35.0831 105.068 35.1963 105.068 35.3143V41.8117H98.5717C98.4536 41.8117 98.3404 41.8586 98.257 41.9421C98.1735 42.0255 98.1266 42.1387 98.1266 42.2568L98.1259 53.8154Z" fill="white"/>
<path d="M105.533 49.2185V43.0322H99.7898C99.6718 43.0322 99.5586 43.0791 99.4751 43.1625C99.3916 43.246 99.3447 43.3592 99.3447 43.4772V49.2192L105.533 49.2185Z" fill="white"/>
<path d="M99.3477 55.3982C101.463 55.359 103.556 54.9566 105.535 54.2087V51.0925H99.792C99.674 51.0925 99.5608 51.1394 99.4773 51.2229C99.3939 51.3063 99.347 51.4195 99.347 51.5376L99.3477 55.3982Z" fill="white"/>
<path d="M112.473 42.2731V36.0868H106.731C106.613 36.0868 106.5 36.1337 106.416 36.2172C106.333 36.3006 106.286 36.4138 106.286 36.5319V42.2731H112.473Z" fill="white"/>
<path d="M113.212 49.9594L113.219 49.952C113.46 49.7072 113.594 49.3772 113.591 49.0341V44.1449H107.404V50.3327H112.292C112.636 50.3351 112.967 50.2008 113.212 49.9594Z" fill="white"/>
<path d="M107.825 55.4458C109.478 54.736 111.019 53.7888 112.399 52.6341H107.825V55.4458Z" fill="white"/>
<path d="M117.458 42.2731C118.207 40.2947 118.61 38.202 118.649 36.0868H114.345V42.2731H117.458Z" fill="white"/>
<path d="M115.884 49.1424C117.039 47.7623 117.985 46.221 118.694 44.5673H115.884V49.1424Z" fill="white"/>
<path d="M115.884 49.1424C117.039 47.7623 117.985 46.221 118.694 44.5673H115.884V49.1424Z" fill="white"/>
<path d="M94.0016 9.18052C93.6517 9.66877 93.3076 10.1607 92.9562 10.6446C91.8465 12.1759 90.6775 13.6627 89.5333 15.1684C89.9813 15.2304 90.431 15.2992 90.8824 15.3749C91.834 13.7769 92.8091 12.1891 93.7234 10.5677C93.9796 10.1138 94.2307 9.6556 94.484 9.19882C94.6845 8.84086 94.219 8.87673 94.0016 9.18052Z" fill="white"/>
<path d="M89.4848 17.7634C89.6532 17.4706 89.8274 17.1778 89.9972 16.8798C89.4848 16.7803 88.9724 16.6881 88.46 16.6061H88.4549C86.8322 18.7782 85.3505 21.0521 84.0188 23.4139C81.6368 27.7328 79.9847 32.5605 80.7438 37.5419C81.3898 41.6834 83.4826 45.4619 86.6505 48.2067C87.3239 48.7889 88.041 49.3187 88.7953 49.7915C88.8429 49.8211 88.8999 49.832 88.9551 49.8222C89.0103 49.8124 89.06 49.7825 89.0946 49.7383C89.1291 49.6941 89.1462 49.6387 89.1424 49.5828C89.1386 49.5268 89.1143 49.4742 89.0742 49.435C86.6217 47.0664 84.8518 44.0816 83.95 40.7935C82.5321 35.564 83.7106 30.2048 85.7296 25.3003C86.8224 22.7119 88.0766 20.1947 89.4848 17.7634Z" fill="white"/>
</svg>

<svg width="119" height="56" viewBox="0 0 119 56" fill="none" xmlns="http://www.w3.org/2000/svg"><path d="M7.628 18.512v3.33h.106a7.403 7.403 0 013.013-3.09 8.916 8.916 0 014.229-.981c2.326 0 4.114.634 5.365 1.903 1.251 1.269 1.877 3.33 1.876 6.185V46.95h-7.296V27.339c0-1.48-.247-2.51-.74-3.09a2.957 2.957 0 00-2.38-.872c-2.572 0-3.859 1.568-3.858 4.705v18.87H.65v-28.44h6.977zm26.787-9.728H27.12v6.238h7.295V8.784zm0 9.728H27.12v28.44h7.295v-28.44zM2.552 9.454l1.315 4.966H2.823l-.23-1.048H1.27l-.23 1.048H0l1.314-4.966h1.238zm-.131 3.095l-.48-2.232h-.014l-.48 2.232h.974zm3.776-3.095c.221-.007.441.037.643.129.165.078.309.194.421.337.108.142.186.304.23.476.046.179.07.362.07.547.004.228-.035.454-.116.667a1.21 1.21 0 01-.816.738c-.21.062-.428.092-.647.09h-.536v1.982H4.444V9.454h1.753zM5.89 11.7a.664.664 0 00.483-.18.76.76 0 00.184-.564.883.883 0 00-.16-.57.656.656 0 00-.535-.195h-.417V11.7h.445zm4.148-2.246l1.314 4.966h-1.045l-.229-1.048H8.754l-.23 1.048h-1.04l1.314-4.966h1.24zm-.132 3.095l-.48-2.232h-.014l-.48 2.232h.974zm3.918-2.208a.48.48 0 00-.47-.247.47.47 0 00-.31.101.669.669 0 00-.19.327 2.79 2.79 0 00-.098.59c-.02.244-.028.542-.028.895-.003.304.01.608.038.911.014.184.054.366.118.54a.497.497 0 00.201.256.674.674 0 00.53.02.42.42 0 00.198-.18 1.18 1.18 0 00.132-.382 3.54 3.54 0 00.05-.65h1a4.46 4.46 0 01-.062.765 1.742 1.742 0 01-.233.632 1.16 1.16 0 01-.48.425 1.818 1.818 0 01-.804.153 1.89 1.89 0 01-.897-.181 1.22 1.22 0 01-.511-.522 2.295 2.295 0 01-.23-.814 9.519 9.519 0 01-.052-1.043 9.548 9.548 0 01.052-1.04c.026-.284.104-.561.23-.817.115-.224.292-.409.511-.532.278-.14.587-.206.897-.192.292-.014.583.046.846.174.192.102.352.255.463.442.101.177.167.374.191.577.025.192.038.386.039.58h-1.002a1.809 1.809 0 00-.13-.788zm2.973-.887v1.899h1.168V9.454h1.002v4.966h-1.002v-2.207h-1.168v2.207h-1.002V9.454h1.002zm5.87.821h-1.774v1.169h1.669v.82h-1.67V13.6h1.844v.82H19.89V9.454h2.775v.821zm15.328 13.197v-4.97h3.7V15.28a8.698 8.698 0 01.529-3.225c.31-.823.83-1.551 1.506-2.114a5.985 5.985 0 012.405-1.137 13.566 13.566 0 013.172-.343c1.303 0 2.607.053 3.911.159v5.18a4.031 4.031 0 00-.74-.055h-.687a3.428 3.428 0 00-2.168.528 2.152 2.152 0 00-.634 1.745V18.5h4.229v4.97h-4.23v23.473h-7.294v-23.47h-3.7zM64.85 8.776h-7.294v6.238h7.294V8.776zm0 9.727h-7.294v28.44h7.294v-28.44zm33.276 35.312A18.946 18.946 0 0179.18 34.868c0-9.003 7.057-17.641 11.885-23.942A70.923 70.923 0 0097.93.122a.22.22 0 01.393 0 70.907 70.907 0 006.866 10.805c4.826 6.3 11.886 14.933 11.886 23.942h-11.562a.445.445 0 00-.445.445v6.498h-6.496a.445.445 0 00-.445.445l-.001 11.558z" fill="#fff"/><path d="M105.533 49.218v-6.186H99.79a.445.445 0 00-.445.445v5.742h6.188zm-6.185 6.18a18.47 18.47 0 006.187-1.19v-3.115h-5.743a.445.445 0 00-.445.445v3.86zm13.125-13.125v-6.186h-5.742a.447.447 0 00-.445.445v5.741h6.187zm.739 7.687l.007-.008c.241-.245.375-.575.372-.918v-4.89h-6.187v6.189h4.888c.344.002.675-.132.92-.374zm-5.387 5.486a18.507 18.507 0 004.574-2.812h-4.574v2.812zm9.633-13.173a18.432 18.432 0 001.191-6.186h-4.304v6.186h3.113zm-1.574 6.869a18.463 18.463 0 002.81-4.575h-2.81v4.575z" fill="#fff"/><path d="M115.884 49.142a18.463 18.463 0 002.81-4.575h-2.81v4.575zM94.002 9.18c-.35.489-.694.98-1.046 1.465-1.11 1.53-2.279 3.018-3.423 4.523.448.062.898.131 1.35.207.951-1.598 1.926-3.186 2.84-4.807.257-.454.508-.912.761-1.37.2-.357-.265-.321-.482-.017zm-4.517 8.583c.168-.292.342-.585.512-.883a47.17 47.17 0 00-1.537-.274h-.005a63.422 63.422 0 00-4.436 6.808c-2.382 4.319-4.034 9.146-3.275 14.128a17.726 17.726 0 005.906 10.665 17.45 17.45 0 002.145 1.584.227.227 0 00.28-.356 19 19 0 01-5.125-8.642c-1.418-5.229-.24-10.588 1.78-15.493a67.144 67.144 0 013.755-7.537z" fill="#fff"/></svg>
